assets/Woman with headscarf/Dark/Flat/woman_with_headscarf_flat_dark.svg

<svg width="32" height="32" viewBox="0 0 32 32" fill="none" xmlns="http://www.w3.org/2000/svg">
<path d="M21.1987 19.3143C21.6212 18.5054 21.86 17.5855 21.86 16.6098C21.86 13.3789 19.2409 10.7598 16.01 10.7598C12.7792 10.7598 10.16 13.3789 10.16 16.6098C10.16 17.2458 10.2616 17.8582 10.4493 18.4316L11.0956 19.1946L10.8158 19.3036C10.5191 19.4624 10.2304 19.6343 9.95075 19.8187L9.18742 24.3538L5.14161 27.232C5.04843 27.8076 5 28.3981 5 28.9998V29.9998H27V28.9998C27 24.8123 24.6547 21.1694 21.1987 19.3143Z" fill="#635994"/>
<path d="M20.2582 7.84996L16.8123 4.70996C15.4464 4.70996 14.1632 7.19996 13.3975 6.10996C13.2629 5.92996 12.9732 5.95996 12.8904 6.15996L12.8076 6.35996C12.5593 6.93996 12.0936 7.38996 11.5245 7.63996C11.4934 7.65996 11.452 7.66996 11.4106 7.68996C11.1623 7.80996 10.5103 8.25996 10.5 9.24996L10.6966 12.5C10.8208 15.44 13.1698 17.9397 16.0155 17.9397C18.8612 17.9397 21.2103 15.44 21.3344 12.5L21.5 9.35996C21.5 7.95996 20.4548 7.84996 20.2582 7.84996Z" fill="#573739"/>
<path d="M13.26 9.77979C13.85 9.77979 14.33 10.1898 14.63 10.6498C14.3524 10.7358 14.081 10.8126 13.8103 10.8892C13.3885 11.0086 12.9685 11.1275 12.53 11.2798L12.03 10.8298C11.83 10.6498 11.84 10.3098 12.07 10.1498C12.4 9.90978 12.84 9.77979 13.26 9.77979Z" fill="black"/>
<path d="M18.74 9.77979C18.15 9.77979 17.67 10.1898 17.37 10.6498C17.6352 10.7308 17.8936 10.8037 18.1497 10.8759C18.589 10.9999 19.0215 11.1219 19.47 11.2798L19.97 10.8298C20.17 10.6498 20.16 10.3098 19.93 10.1498C19.6 9.90978 19.16 9.77979 18.74 9.77979Z" fill="black"/>
<path d="M12.03 10.9899C12.19 10.3499 12.77 9.87988 13.45 9.87988C14.16 9.87988 14.75 10.3899 14.88 11.0699C14.91 11.2099 14.79 11.3499 14.64 11.3499H12.31C12.12 11.3499 11.98 11.1699 12.03 10.9899Z" fill="white"/>
<path d="M19.98 10.9899C19.82 10.3499 19.24 9.87988 18.56 9.87988C17.85 9.87988 17.25 10.3899 17.13 11.0699C17.1 11.2099 17.22 11.3499 17.37 11.3499H19.7C19.89 11.3499 20.03 11.1699 19.98 10.9899Z" fill="white"/>
<path d="M12.72 11.0997C12.72 10.5797 13.14 10.1597 13.66 10.1597C14.18 10.1597 14.6 10.5797 14.6 11.0997C14.6 11.1797 14.58 11.2697 14.55 11.3497H12.75C12.73 11.2697 12.72 11.1897 12.72 11.0997Z" fill="#7D4533"/>
<path d="M19.28 11.0997C19.28 10.5797 18.86 10.1597 18.34 10.1597C17.83 10.1597 17.41 10.5797 17.42 11.0997C17.42 11.1897 17.43 11.2697 17.45 11.3497H19.25C19.27 11.2697 19.28 11.1897 19.28 11.0997Z" fill="#7D4533"/>
<path d="M13.67 10.5698C13.96 10.5698 14.2 10.7998 14.2 11.0998C14.2 11.1688 14.1824 11.2319 14.1652 11.2936C14.1599 11.3124 14.1547 11.3311 14.15 11.3498H13.2C13.16 11.2698 13.14 11.1898 13.14 11.0998C13.14 10.8098 13.37 10.5698 13.67 10.5698Z" fill="black"/>
<path d="M18.3399 10.5698C18.0499 10.5698 17.8099 10.7998 17.8099 11.0998C17.8099 11.1898 17.8299 11.2698 17.8599 11.3498H18.8099C18.8499 11.2698 18.8699 11.1898 18.8699 11.0998C18.8699 10.8098 18.6399 10.5698 18.3399 10.5698Z" fill="black"/>
<path d="M13.5099 10.7296C13.5099 10.8235 13.4338 10.8996 13.3399 10.8996C13.246 10.8996 13.1699 10.8235 13.1699 10.7296C13.1699 10.6357 13.246 10.5596 13.3399 10.5596C13.4338 10.5596 13.5099 10.6357 13.5099 10.7296Z" fill="white"/>
<path d="M18.19 10.7296C18.19 10.8235 18.1139 10.8996 18.02 10.8996C17.9261 10.8996 17.85 10.8235 17.85 10.7296C17.85 10.6357 17.9261 10.5596 18.02 10.5596C18.1139 10.5596 18.19 10.6357 18.19 10.7296Z" fill="white"/>
<path d="M16.0005 14.2858C15.4431 14.2858 14.9363 14.1469 14.4904 13.9013C14.3383 13.8159 14.1863 13.9974 14.2775 14.1469C14.6424 14.745 15.2809 15.1294 16.0005 15.1294C16.7201 15.1294 17.3586 14.7343 17.7235 14.1469C17.8147 13.9974 17.6525 13.8159 17.5106 13.9013C17.0647 14.1469 16.5478 14.2858 16.0005 14.2858Z" fill="#290118"/>
<path d="M15.6418 10.8639L15.1487 12.606C15.0463 12.9606 15.2882 13.3252 15.6325 13.3252H16.3675C16.7118 13.3252 16.9537 12.9606 16.8513 12.606L16.3582 10.8639C16.2466 10.479 15.7534 10.479 15.6418 10.8639Z" fill="#3D2123"/>
<path d="M19.55 9.20997C19.6 9.23997 19.64 9.24997 19.69 9.24997C19.79 9.24997 19.89 9.19997 19.93 9.08997C20.01 8.95997 19.96 8.78997 19.83 8.70997C19.83 8.70997 19.8255 8.7076 19.8212 8.70533C19.7182 8.65048 18.8482 8.18753 17.84 8.36997C17.68 8.39997 17.58 8.54997 17.61 8.69997C17.64 8.85997 17.79 8.95997 17.94 8.92997C18.7082 8.7928 19.4094 9.14064 19.5314 9.20116C19.5428 9.20682 19.55 9.20997 19.55 9.20997Z" fill="black"/>
<path d="M12.04 9.10973C12.09 9.19973 12.18 9.24973 12.28 9.24973C12.3227 9.24973 12.3582 9.23515 12.3987 9.21843C12.4057 9.21557 12.4127 9.21265 12.42 9.20973C12.43 9.19973 13.19 8.77973 14.03 8.92973C14.18 8.95973 14.33 8.85973 14.36 8.70973C14.38 8.54973 14.28 8.40973 14.13 8.37973C13.1218 8.1973 12.2519 8.66024 12.1489 8.71509C12.1446 8.71737 12.14 8.71973 12.14 8.71973C12 8.79973 11.96 8.96973 12.04 9.10973Z" fill="black"/>
<path d="M16.0202 2C20.3911 2 22.4247 4.63 22.4146 4.63C23.1836 5.54 23.5782 6.73 23.4871 7.92L23.2342 12.59C23.1532 14.52 22.3539 16.27 20.988 17.52C19.6626 18.74 17.892 19.41 16.0101 19.41C14.1282 19.41 12.3576 18.74 11.0322 17.52C9.66631 16.27 8.86701 14.52 8.78607 12.6L8.51289 7.97C8.42183 6.76 8.81642 5.56 9.59548 4.63C9.59548 4.63 11.6291 2 16.0202 2ZM10.8197 12.5C10.9411 15.44 13.2379 17.41 16.0202 17.41C18.8026 17.41 21.0993 15.44 21.2106 12.49L21.3624 9.65C21.3826 9.37 21.2511 9.1 21.0285 8.93L17.204 6.1C16.4856 5.57 15.5042 5.57 14.796 6.1L10.9816 8.93C10.759 9.1 10.6275 9.37 10.6477 9.65L10.8197 12.5Z" fill="#8D65C5"/>
<path d="M21.613 18.2969C20.8888 20.7052 18.6543 22.4597 16.01 22.4597C13.4067 22.4597 11.2006 20.7592 10.4418 18.4085C10.7403 18.6788 11.0777 18.9396 11.4492 19.1794C12.6177 19.9333 14.1559 20.4997 15.9688 20.4997C18.7249 20.4997 20.504 19.4066 21.6115 18.3021L21.613 18.2969Z" fill="#8D65C5"/>
<path d="M10.37 28.51C8.49001 28.51 6.71001 28.05 5.14001 27.25C5.63702 24.1402 7.43967 21.4639 9.96456 19.8081C10.7375 21.3165 12.5721 23.3907 16.0156 23.3907C18.094 23.3907 19.4693 22.7734 20.4201 21.9626C20.6356 21.7789 20.8276 21.5861 20.9997 21.3914C19.2818 25.5699 15.1713 28.51 10.37 28.51Z" fill="#8D65C5"/>
</svg>

<svg xmlns="http://www.w3.org/2000/svg" width="32" height="32" fill="none"><path fill="#635994" d="M21.199 19.314a5.85 5.85 0 1 0-10.75-.883l.647.764-.28.109c-.297.158-.586.33-.865.515l-.764 4.535-4.045 2.878A11.057 11.057 0 0 0 5 29v1h22v-1c0-4.188-2.345-7.83-5.801-9.686Z"/><path fill="#573739" d="m20.258 7.85-3.446-3.14c-1.366 0-2.649 2.49-3.415 1.4-.134-.18-.424-.15-.507.05l-.082.2a2.466 2.466 0 0 1-1.284 1.28c-.03.02-.072.03-.113.05-.249.12-.9.57-.911 1.56l.197 3.25c.124 2.94 2.473 5.44 5.319 5.44 2.845 0 5.194-2.5 5.318-5.44l.166-3.14c0-1.4-1.045-1.51-1.242-1.51Z"/><path fill="#000" d="M13.26 9.78c.59 0 1.07.41 1.37.87a34.29 34.29 0 0 1-.82.24c-.421.119-.841.237-1.28.39l-.5-.45a.44.44 0 0 1 .04-.68c.33-.24.77-.37 1.19-.37ZM18.74 9.78c-.59 0-1.07.41-1.37.87.265.08.524.154.78.226.439.124.872.246 1.32.404l.5-.45a.44.44 0 0 0-.04-.68 2.07 2.07 0 0 0-1.19-.37Z"/><path fill="#fff" d="M12.03 10.99a1.458 1.458 0 0 1 2.85.08c.03.14-.09.28-.24.28h-2.33c-.19 0-.33-.18-.28-.36ZM19.98 10.99c-.16-.64-.74-1.11-1.42-1.11-.71 0-1.31.51-1.43 1.19-.03.14.09.28.24.28h2.33c.19 0 .33-.18.28-.36Z"/><path fill="#7D4533" d="M12.72 11.1a.939.939 0 1 1 1.88 0c0 .08-.02.17-.05.25h-1.8c-.02-.08-.03-.16-.03-.25ZM19.28 11.1c0-.52-.42-.94-.94-.94-.51 0-.93.42-.92.94 0 .09.01.17.03.25h1.8c.02-.08.03-.16.03-.25Z"/><path fill="#000" d="M13.67 10.57c.29 0 .53.23.53.53 0 .069-.018.132-.035.194l-.015.056h-.95a.542.542 0 0 1-.06-.25c0-.29.23-.53.53-.53ZM18.34 10.57c-.29 0-.53.23-.53.53 0 .09.02.17.05.25h.95c.04-.08.06-.16.06-.25 0-.29-.23-.53-.53-.53Z"/><path fill="#fff" d="M13.51 10.73a.17.17 0 1 1-.34 0 .17.17 0 0 1 .34 0ZM18.19 10.73a.17.17 0 1 1-.34 0 .17.17 0 0 1 .34 0Z"/><path fill="#290118" d="M16 14.286a3.097 3.097 0 0 1-1.51-.385c-.152-.085-.304.096-.213.246a2.016 2.016 0 0 0 1.723.982c.72 0 1.359-.395 1.724-.982.09-.15-.072-.331-.213-.246a3.126 3.126 0 0 1-1.51.385Z"/><path fill="#3D2123" d="m15.642 10.864-.493 1.742c-.103.355.14.72.484.72h.735c.344 0 .586-.365.483-.72l-.493-1.742c-.111-.385-.605-.385-.716 0Z"/><path fill="#000" d="M19.55 9.21c.05.03.09.04.14.04.1 0 .2-.05.24-.16.08-.13.03-.3-.1-.38l-.009-.005c-.103-.055-.973-.517-1.981-.335-.16.03-.26.18-.23.33.03.16.18.26.33.23.768-.137 1.47.21 1.591.271l.019.009ZM12.04 9.11c.05.09.14.14.24.14a.303.303 0 0 0 .119-.032l.021-.008c.01-.01.77-.43 1.61-.28.15.03.3-.07.33-.22.02-.16-.08-.3-.23-.33-1.008-.183-1.878.28-1.981.335l-.009.005a.28.28 0 0 0-.1.39Z"/><path fill="#8D65C5" d="M16.02 2c4.371 0 6.405 2.63 6.395 2.63.769.91 1.163 2.1 1.072 3.29l-.253 4.67c-.08 1.93-.88 3.68-2.246 4.93-1.325 1.22-3.096 1.89-4.978 1.89-1.882 0-3.652-.67-4.978-1.89-1.366-1.25-2.165-3-2.246-4.92l-.273-4.63a4.667 4.667 0 0 1 1.082-3.34S11.63 2 16.02 2Zm-5.2 10.5c.121 2.94 2.418 4.91 5.2 4.91 2.783 0 5.08-1.97 5.19-4.92l.152-2.84a.838.838 0 0 0-.333-.72L17.204 6.1c-.718-.53-1.7-.53-2.408 0l-3.814 2.83a.838.838 0 0 0-.334.72l.172 2.85Z"/><path fill="#8D65C5" d="M21.613 18.297a5.853 5.853 0 0 1-11.171.111c.298.27.636.532 1.007.771a8.308 8.308 0 0 0 4.52 1.32c2.756 0 4.535-1.092 5.643-2.197l.001-.005Z"/><path fill="#8D65C5" d="M10.37 28.51c-1.88 0-3.66-.46-5.23-1.26.497-3.11 2.3-5.786 4.825-7.442.773 1.509 2.607 3.583 6.05 3.583 2.079 0 3.454-.618 4.405-1.428.216-.184.408-.377.58-.572a11.487 11.487 0 0 1-10.63 7.119Z"/></svg>
